configs/network-icons/creditcoin-icon-dark.svg

<svg width="30" height="30" viewBox="0 0 30 30" fill="none" xmlns="http://www.w3.org/2000/svg">
<g clip-path="url(#clip0_11020_43101)">
<path fill-rule="evenodd" clip-rule="evenodd" d="M15.0001 27.0331C19.423 27.0331 23.2968 24.6153 25.3845 21.044L27.9945 22.5276C25.3845 26.9782 20.5494 30 15.0001 30C6.70336 30 0 23.2967 0 15C0 6.7033 6.70336 0 15.0001 0C20.5494 0 25.4121 3.02182 27.9945 7.5L25.3845 9.01091C23.324 5.43955 19.4506 3.02182 15.0001 3.02182C8.3792 3.02182 2.99441 8.40648 2.99441 15.0276C2.99441 21.6484 8.3792 27.0331 15.0001 27.0331ZM17.6223 13.517H30.0123V16.4843H17.6223C17.1277 17.3908 16.1387 17.9952 15.0398 17.9952C13.3914 17.9952 12.0453 16.649 12.0453 15.0007C12.0453 13.3524 13.3914 12.0061 15.0398 12.0061C16.1387 12.0061 17.1001 12.6106 17.6223 13.517Z" fill="white"/>
</g>
<defs>
<clipPath id="clip0_11020_43101">
<rect width="30" height="30" fill="white"/>
</clipPath>
</defs>
</svg>

<svg xmlns="http://www.w3.org/2000/svg" fill="none" viewBox="0 0 30 30">
  <g clip-path="url(#creditcoin-icon-dark_svg__a)">
    <path fill="#fff" fill-rule="evenodd" d="M15 27.033c4.423 0 8.297-2.418 10.384-5.989l2.61 1.484C25.384 26.978 20.55 30 15 30 6.703 30 0 23.297 0 15S6.703 0 15 0c5.55 0 10.412 3.022 12.994 7.5l-2.61 1.51A11.973 11.973 0 0 0 15 3.023c-6.62 0-12.006 5.384-12.006 12.006 0 6.62 5.385 12.005 12.006 12.005Zm2.622-13.516h12.39v2.967h-12.39a2.947 2.947 0 0 1-2.582 1.511 3.002 3.002 0 0 1-2.995-2.994 3.002 3.002 0 0 1 2.995-2.995 2.98 2.98 0 0 1 2.582 1.511Z" clip-rule="evenodd"/>
  </g>
  <defs>
    <clipPath id="creditcoin-icon-dark_svg__a">
      <path fill="#fff" d="M0 0h30v30H0z"/>
    </clipPath>
  </defs>
</svg>
